kiosk-igrinskij/images/923d140a4a8a65774c232c03d65db52b.svg

<svg fill="none" height="16" viewBox="0 0 16 16" width="16" xmlns="http://www.w3.org/2000/svg"><g fill="#f1e9dd"><path d="m9.34856 2.82706s.35664-.90466.35664-1.11904c0-.52183-.52189-.950602-1.1888-.996542v-.240301h.23776v-.235588h-.23776v-.235589h-.23776v.235589h-.23776v.235588h.23776v.235589c-.66573.04594-1.1888.471174-1.1888.996544 0 .21438.35664 1.11904.35664 1.11904z"/><path d="m14.8599 2.35571c-.9343 1.04955-2.0863 2.04609-2.9589 3.07915-.2615.31097-.1902.70676-.3566 1.08959s-.5801.61136-.8322.44173c-.5528-.36987-.6966-1.48774-.2805-2.01899.4363-.5607 1.0366-.66436 1.7642-.70677-.1094-.25915-.9119-.85047-1.1187-.99654-.3709-.2615-.6217-.16255-.8964.15902-.54442.63845-1.12099 1.25098-1.78315 1.9813-.66216-.73032-1.23753-1.34285-1.78319-1.9813-.27461-.32157-.52545-.42052-.89754-.15902-.20685.14607-1.0081.73739-1.11747.99654.72754.04123 1.32789.14489 1.76417.70677.41608.53243.27224 1.64912-.28412 2.02253-.25559.16962-.67642-.08128-.83216-.44173-.15573-.36045-.09391-.77862-.35663-1.0896-.87258-1.03423-2.02571-2.03077-2.95892-3.08268-1.078235 1.32283-1.262498 2.78584-1.069913 4.32777.275803 2.1415 1.485993 3.45372 3.612753 3.80002.41013.0672 1.14243-1.04482 1.35285-1.31692.35664.88582.28055 1.11082-.41133 1.42882-.28518.1213-.52608.3261-.69035.587s-.24403.5654-.22859.8725c0 .2815.38399.556.60986.8564-.18189.0612-1.22565.3675-1.47768.4535-.01545-.0106-.03209-.0189-.04755-.0283l-3.145552-3.65163-.436288.36403 2.94465 3.4231c-.11888.2685.00951.6667.49691.5783l.71923.8399.43628-.3687-.54209-.6314c.54685-.1625 1.08656-.3604 1.63578-.5218.48979-.1437.8916-.2686.84762-.9494-.01902-.2992.33524-.622.55754-.9966.65503.8917.61104 1.2816-.07251 1.8412-.53021.4323-1.05922.8658-1.67145 1.3676 1.02117.4782 1.95676.9223 2.89947 1.3499.04542.0172.09446.0229.14266.0165.04858.0065.09803.0008.14384-.0165.94272-.4276 1.87827-.8717 2.89947-1.3499-.6122-.5018-1.1412-.9353-1.67144-1.3676-.68475-.5596-.72755-.9495-.07252-1.8412.2223.3746.57656.6974.55756.9966-.0452.6808.3566.8057.8476.9494.7382.2167 1.4598.4994 2.2088.6738.5872.1366 1.1067-.2733 1.2209-.8481.0488-.2629-.0055-.5343-.1517-.7589-.1463-.2246-.3735-.3854-.6353-.4497-.5944-.1461-1.1282.1437-1.3077.7174-.0392.1248-.063.2544-.1034.4264l-.6455-.2179c.2258-.3004.6039-.5749.6098-.8564.0146-.3056-.065-.6084-.2283-.868-.1633-.2597-.4025-.4639-.6859-.5856-.6918-.318-.7667-.543-.4113-1.42883.2057.26621.9427 1.37823 1.3517 1.31103 2.1279-.3463 3.3381-1.65852 3.6104-3.79767.1961-1.54193.0118-3.00493-1.0712-4.33012z"/></g></svg>

<svg width="16" height="16" viewBox="0 0 16 16" fill="none" xmlns="http://www.w3.org/2000/svg">
<path d="M9.34856 2.82706C9.34856 2.82706 9.7052 1.9224 9.7052 1.70802C9.7052 1.18619 9.18331 0.757418 8.5164 0.711478V0.471177H8.75416V0.235589H8.5164V0H8.27864V0.235589H8.04088V0.471177H8.27864V0.706766C7.61291 0.752706 7.08984 1.17794 7.08984 1.70331C7.08984 1.91769 7.44648 2.82235 7.44648 2.82235L9.34856 2.82706Z" fill="#F1E9DD"/>
<path d="M14.8599 2.35571C13.9256 3.40526 12.7736 4.4018 11.901 5.43486C11.6395 5.74583 11.7108 6.14162 11.5444 6.52445C11.378 6.90728 10.9643 7.13581 10.7122 6.96618C10.1594 6.59631 10.0156 5.47844 10.4317 4.94719C10.868 4.38649 11.4683 4.28283 12.1959 4.24042C12.0865 3.98127 11.284 3.38995 11.0772 3.24388C10.7063 2.98238 10.4555 3.08133 10.1808 3.4029C9.63638 4.04135 9.05981 4.65388 8.39765 5.3842C7.73549 4.65388 7.16012 4.04135 6.61446 3.4029C6.33985 3.08133 6.08901 2.98238 5.71692 3.24388C5.51007 3.38995 4.70882 3.98127 4.59945 4.24042C5.32699 4.28165 5.92734 4.38531 6.36362 4.94719C6.7797 5.47962 6.63586 6.59631 6.0795 6.96972C5.82391 7.13934 5.40308 6.88844 5.24734 6.52799C5.09161 6.16754 5.15343 5.74937 4.89071 5.43839C4.01813 4.40416 2.865 3.40762 1.93179 2.35571C0.853555 3.67854 0.669292 5.14155 0.861877 6.68348C1.13768 8.82498 2.34787 10.1372 4.47463 10.4835C4.88476 10.5507 5.61706 9.43868 5.82748 9.16658C6.18412 10.0524 6.10803 10.2774 5.41615 10.5954C5.13097 10.7167 4.89007 10.9215 4.7258 11.1824C4.56153 11.4433 4.48177 11.7478 4.49721 12.0549C4.49721 12.3364 4.8812 12.6109 5.10707 12.9113C4.92518 12.9725 3.88142 13.2788 3.62939 13.3648C3.61394 13.3542 3.5973 13.3459 3.58184 13.3365L0.436288 9.68487L0 10.0489L2.94465 13.472C2.82577 13.7405 2.95416 14.1387 3.44156 14.0503L4.16079 14.8902L4.59707 14.5215L4.05498 13.8901C4.60183 13.7276 5.14154 13.5297 5.69076 13.3683C6.18055 13.2246 6.58236 13.0997 6.53838 12.4189C6.51936 12.1197 6.87362 11.7969 7.09592 11.4223C7.75095 12.314 7.70696 12.7039 7.02341 13.2635C6.4932 13.6958 5.96419 14.1293 5.35196 14.6311C6.37313 15.1093 7.30872 15.5534 8.25143 15.981C8.29685 15.9982 8.34589 16.0039 8.39409 15.9975C8.44267 16.004 8.49212 15.9983 8.53793 15.981C9.48065 15.5534 10.4162 15.1093 11.4374 14.6311C10.8252 14.1293 10.2962 13.6958 9.76596 13.2635C9.08121 12.7039 9.03841 12.314 9.69344 11.4223C9.91574 11.7969 10.27 12.1197 10.251 12.4189C10.2058 13.0997 10.6076 13.2246 11.0986 13.3683C11.8368 13.585 12.5584 13.8677 13.3074 14.0421C13.8946 14.1787 14.4141 13.7688 14.5283 13.194C14.5771 12.9311 14.5228 12.6597 14.3766 12.4351C14.2303 12.2105 14.0031 12.0497 13.7413 11.9854C13.1469 11.8393 12.6131 12.1291 12.4336 12.7028C12.3944 12.8276 12.3706 12.9572 12.3302 13.1292L11.6847 12.9113C11.9105 12.6109 12.2886 12.3364 12.2945 12.0549C12.3091 11.7493 12.2295 11.4465 12.0662 11.1869C11.9029 10.9272 11.6637 10.723 11.3803 10.6013C10.6885 10.2833 10.6136 10.0583 10.969 9.17247C11.1747 9.43868 11.9117 10.5507 12.3207 10.4835C14.4486 10.1372 15.6588 8.82498 15.9311 6.68583C16.1272 5.1439 15.9429 3.6809 14.8599 2.35571Z" fill="#F1E9DD"/>
</svg>
